X: 0
T: Islay Rant
C: Charlie McKerron
R: reel
M: 4/4
L: 1/8
K: Ador
|:"Am"EAAG ABcd|e2 ed eAAf|"Em"g2 gf gABA|GABG cABG|
"Am"EAAG ABcd|"C"e2 ed eAAf|"G"g2 gf gABA| "Em"GABG A4:|
|:"Am"a2 ab aged|eA (3AAA eAfA|"G"g2 gf gABA| GABG "E7"cABG|
"A"^cA A/A/A cA"Bm"dA|"A"eA A/A/A eA"D"fA|"Em"g2 gf gABA| GABG "(Am)"A4:| 